X: 1
T: Kip's
T: Pet Of The Pipers
M: 6/8
L: 1/8
R: jig
K: G Major
|: D |\
GDG B^AB | GB/c/d gdB | G2 D BdG | DED cc/B/A |
G3 BAG | dBd g2 d | efg dBG | cBA G2 :|
|: g |\
gfg efg | fag fed | gfg efg | agf g2 f |
gfe d>cB | edc B>AG | gg/g/g dBG | cBA G2 :|
